public/assets/images/shapes/funny2.svg

<svg xmlns="http://www.w3.org/2000/svg" width="1440" height="343" viewBox="0 0 1440 343">
  <path fill="#FCCDD3" fill-rule="evenodd" d="M1108.01044,120.678121 C965.807766,132.343009 822.684807,125.382598 680.229332,129.104115 C525.062854,133.1555 366.607748,153.279589 224.704442,219.620455 C181.734956,239.709123 140.743526,263.809325 97.3394008,283.003589 C76.0398235,292.421397 53.6802569,301.631101 30.852787,306.647734 C27.2381788,307.442513 11.0389688,312.171342 -1.13686838e-12,314 L-1.13686838e-12,342.710241 L1440,342.710241 L1440,5.1159077e-13 C1420.08639,17.9190738 1390.53753,38.6054867 1346.86286,61.6186783 C1273.53953,100.252945 1189.77155,113.972305 1108.01044,120.678121 Z"/>
</svg>

<svg xmlns="http://www.w3.org/2000/svg" width="1440" height="343"><path fill="#FCCDD3" fill-rule="evenodd" d="M1108.01 120.678c-142.202 11.665-285.325 4.705-427.78 8.426-155.167 4.051-313.622 24.176-455.526 90.516-42.969 20.09-83.96 44.19-127.365 63.384-21.3 9.417-43.659 18.627-66.486 23.644C27.238 307.443 11.039 312.17 0 314v28.71h1440V0c-19.914 17.92-49.462 38.605-93.137 61.619-73.323 38.634-157.091 52.353-238.853 59.06Z"/></svg>
